X: 26130
T: McGovern's Favourite
R: reel
M: 4/4
K: Adorian
|:A2>B AdBA|G2Bd edBd|e2af gedB|AdBA ~AGEG|
A2>B AdBA|GABd edBd|e2af gedB|1 AdB(A A)~AG2:|2 AdBA ABcB||
eaab agef|gedB GABd|e2af gedB|ABAd BAGA|
a3b agef|g2gf gab2|a3b agef|gbaf gedB||

